svg/black/gbpt.svg

<svg width="32" height="32" viewBox="0 0 32 32" fill="none" xmlns="http://www.w3.org/2000/svg">
<g clip-path="url(#clip0_1_2)">
<path fill-rule="evenodd" clip-rule="evenodd" d="M16 0C20.4167 0 24.4193 1.79167 27.3125 4.6875C30.2083 7.58333 32 11.5833 32 16C32 20.4193 30.2083 24.4193 27.3125 27.3151C24.4167 30.2109 20.4167 32.0026 16 32.0026C11.5833 32.0026 7.58073 30.2083 4.6875 27.3125C1.79167 24.4193 0 20.4193 0 16C0 11.5833 1.79167 7.58073 4.6875 4.6875C7.58073 1.79167 11.5833 0 16 0ZM15.5104 15.0573H18.0469V17.0599H15.8047C15.776 17.5313 15.6901 17.9557 15.5443 18.3359C15.4271 18.625 15.2344 18.9245 14.9583 19.2344C15.2682 19.1667 15.5365 19.1328 15.7604 19.1328C16.0469 19.1328 16.4167 19.1875 16.8724 19.2943C17.4974 19.4375 17.9974 19.5078 18.3698 19.5078C18.6745 19.5078 18.9401 19.4818 19.1667 19.4297C19.3958 19.3776 19.6927 19.2708 20.0573 19.1042L21.1953 21.6042C20.6432 21.8776 20.1589 22.0703 19.7396 22.1745C19.3229 22.2813 18.875 22.3307 18.3958 22.3307C17.8698 22.3307 17.2734 22.2396 16.599 22.0573C15.7135 21.8151 15.1667 21.6745 14.9531 21.6354C14.7422 21.599 14.513 21.5781 14.2682 21.5781C13.5495 21.5781 12.7552 21.8281 11.888 22.3307L10.8047 19.9505C11.9792 19.112 12.5677 18.2734 12.5677 17.4349C12.5677 17.388 12.5625 17.263 12.5495 17.0573H10.8021V15.0547H12.0521C11.8438 14.3229 11.7188 13.8958 11.6953 13.7786C11.6615 13.6016 11.6432 13.3828 11.6432 13.1198C11.6432 12.4245 11.8281 11.7995 12.2005 11.2448C12.5677 10.6901 13.0573 10.2891 13.6615 10.0417C14.2656 9.79167 15.0807 9.66406 16.1042 9.66406C17.0625 9.66406 17.8229 9.77344 18.3802 9.98698C18.9401 10.2005 19.4141 10.5573 19.7995 11.0547C20.1875 11.5547 20.4531 12.1563 20.599 12.8646L17.3958 13.362C17.237 12.7682 17.0495 12.375 16.8411 12.1797C16.6328 11.9844 16.3958 11.888 16.1302 11.888C15.8073 11.888 15.5495 11.9948 15.349 12.2057C15.1484 12.4167 15.0495 12.7161 15.0495 13.1042C15.0495 13.3125 15.0703 13.5104 15.1094 13.7005C15.1458 13.8958 15.2813 14.3464 15.5104 15.0573ZM16 4.48958C22.3568 4.48958 27.5104 9.64323 27.5104 15.9974C27.5104 22.3542 22.3568 27.5078 16 27.5078C9.64323 27.5078 4.48958 22.3542 4.48958 15.9974C4.48958 9.64323 9.64323 4.48958 16 4.48958ZM16 2.27604C23.5807 2.27604 29.724 8.42188 29.724 16C29.724 23.5807 23.5781 29.724 16 29.724C8.41927 29.724 2.27604 23.5807 2.27604 16C2.27604 8.41927 8.41927 2.27604 16 2.27604Z" fill="black"/>
</g>
<defs>
<clipPath id="clip0_1_2">
<rect width="32" height="32" fill="white"/>
</clipPath>
</defs>
</svg>

<svg width="32" height="32" viewBox="0 0 32 32" fill="none" xmlns="http://www.w3.org/2000/svg"><g clip-path="url(#clip0_1_2)"><path fill-rule="evenodd" clip-rule="evenodd" d="M16 0c4.417 0 8.42 1.792 11.313 4.688A15.95 15.95 0 0132 16c0 4.42-1.792 8.42-4.688 11.315A15.95 15.95 0 0116 32.003c-4.417 0-8.42-1.795-11.313-4.69A15.94 15.94 0 010 16c0-4.417 1.792-8.42 4.688-11.313A15.945 15.945 0 0116 0zm-.49 15.057h2.537v2.003h-2.242a4.27 4.27 0 01-.26 1.276c-.118.289-.31.588-.587.898.31-.067.579-.101.802-.101.287 0 .657.055 1.112.161.625.143 1.125.214 1.498.214.304 0 .57-.026.797-.078.229-.052.526-.16.89-.326l1.138 2.5c-.552.274-1.036.466-1.455.57a5.402 5.402 0 01-1.344.157c-.526 0-1.123-.091-1.797-.274-.886-.242-1.432-.383-1.646-.422a4.03 4.03 0 00-.685-.057c-.719 0-1.513.25-2.38.753l-1.083-2.38c1.174-.839 1.763-1.678 1.763-2.516 0-.047-.005-.172-.018-.378h-1.748v-2.002h1.25c-.208-.732-.333-1.16-.357-1.276a3.572 3.572 0 01-.052-.66c0-.694.185-1.32.557-1.874a3.15 3.15 0 011.462-1.203c.604-.25 1.419-.378 2.442-.378.959 0 1.719.11 2.276.323.56.213 1.034.57 1.42 1.068.387.5.653 1.101.799 1.81l-3.203.497c-.159-.594-.347-.987-.555-1.182a1.01 1.01 0 00-.71-.292c-.324 0-.582.107-.782.318-.2.21-.3.51-.3.898 0 .209.021.406.06.597.037.195.172.645.401 1.356zM16 4.49c6.357 0 11.51 5.153 11.51 11.507 0 6.357-5.153 11.51-11.51 11.51S4.49 22.355 4.49 15.998C4.49 9.643 9.643 4.49 16 4.49zm0-2.214c7.58 0 13.724 6.146 13.724 13.724 0 7.58-6.146 13.724-13.724 13.724-7.58 0-13.724-6.143-13.724-13.724C2.276 8.42 8.419 2.276 16 2.276z" fill="#000"/></g><defs><clipPath id="clip0_1_2"><path fill="#fff" d="M0 0h32v32H0z"/></clipPath></defs></svg>
